assets/icons/relax.svg

<svg width="65" height="64" viewBox="0 0 65 64" fill="none" xmlns="http://www.w3.org/2000/svg">
<g clip-path="url(#clip0_973_797)">
<path d="M28.4298 14.9858L28.3936 14.7883L28.5311 14.9683C28.5286 14.9683 28.5248 14.9696 28.5223 14.9696H28.5211C28.4911 14.9758 28.4598 14.9808 28.4298 14.9858Z" fill="#F6F6F6"/>
<path d="M28.3936 14.7883L28.5311 14.9683C28.5286 14.9683 28.5248 14.9696 28.5223 14.9696H28.5211C28.4911 14.9758 28.4598 14.9808 28.4298 14.9858L28.3936 14.7883Z" fill="#F6F6F6"/>
<path d="M48.4981 5.47852C48.4081 6.53602 47.9818 7.53852 47.3281 8.37352L38.3943 19.7885L40.5393 31.3448L22.3293 31.386L20.8018 23.1398L8.18557 15.516C7.34932 15.011 6.63932 14.3123 6.16932 13.456C4.51932 10.4523 6.12307 6.85352 10.0056 6.12852L16.9581 4.80602C16.4356 6.44602 16.2993 8.23352 16.6368 10.0398C17.5893 15.1398 22.0406 18.841 27.2193 18.841C28.4894 18.8423 29.7994 18.6078 30.9818 18.1648C35.8068 16.3735 38.7968 11.306 37.8193 6.07727C37.4856 4.28852 36.7206 2.67352 35.6468 1.32852L42.1481 0.11352C45.9468 -0.59898 48.7806 2.14477 48.4981 5.47852Z" fill="#F6F6F6"/>
<path d="M44.8438 54.3787V59.8125C44.8438 62.1238 42.9718 64.0002 40.6601 64C38.3488 64 36.4751 62.125 36.4751 59.8125V47.2312H42.2238L44.8438 54.3787Z" fill="#F6F6F6"/>
<path d="M55.2925 64.0003C53.5213 64.0003 51.9388 62.884 51.3463 61.2115L44.8475 43.4815H31.2375C25.6137 43.4815 24.0825 38.9903 23.375 35.139L45.6713 35.0828C48.7325 35.0828 51.4613 37.0128 52.4838 39.9015L59.2412 58.4204C60.2 61.1453 58.1788 64.0003 55.2925 64.0003Z" fill="#F6F6F6"/>
<path d="M34.1312 6.76676C33.42 2.96101 29.7717 0.450514 25.9712 1.14076C25.9596 1.14314 25.9468 1.14539 25.9352 1.14776C22.1207 1.86239 19.6081 5.53439 20.3205 9.35176C21.0341 13.168 24.7021 15.6831 28.5165 14.9698H28.5176C32.331 14.2561 34.8448 10.583 34.1312 6.76676Z" fill="#F6F6F6"/>
<path d="M22.9049 43.4808H12.8649L7.7124 19.6069L17.4749 25.5107L19.7049 35.9244C20.269 38.4868 21.1013 41.2832 22.9049 43.4808Z" fill="#F6F6F6"/>
<path d="M32.7288 47.2324V50.9812H29.9751V62.0724C29.9751 63.0812 29.2013 63.9499 28.1951 63.9974C27.1201 64.0487 26.2313 63.1899 26.2313 62.1249V50.9812H17.0313V62.0724C17.0313 63.0824 16.2551 63.9512 15.2476 63.9974C14.1726 64.0474 13.2876 63.1899 13.2876 62.1249V47.2312L32.7288 47.2324Z" fill="#F6F6F6"/>
</g>
<defs>
<clipPath id="clip0_973_797">
<rect width="64" height="64" fill="white" transform="translate(0.5)"/>
</clipPath>
</defs>
</svg>

<svg width="65" height="64" fill="none" xmlns="http://www.w3.org/2000/svg"><g clip-path="url(#a)" fill="#F6F6F6"><path d="m28.43 14.986-.036-.198.137.18-.009.002-.092.016Z"/><path d="m28.394 14.788.137.18-.009.002-.092.016-.036-.198Z"/><path d="M48.498 5.479c-.09 1.057-.516 2.06-1.17 2.895l-8.934 11.414 2.145 11.557-18.21.041-1.527-8.246-12.616-7.624c-.837-.505-1.547-1.204-2.017-2.06-1.65-3.004-.046-6.602 3.837-7.327l6.952-1.323a10.712 10.712 0 0 0-.321 5.234c.952 5.1 5.404 8.801 10.582 8.801 1.27.001 2.58-.233 3.763-.676 4.825-1.791 7.815-6.859 6.837-12.088a10.758 10.758 0 0 0-2.172-4.748L42.148.114c3.799-.713 6.633 2.03 6.35 5.365ZM44.844 54.379v5.434A4.186 4.186 0 0 1 40.66 64a4.186 4.186 0 0 1-4.185-4.188v-12.58h5.749l2.62 7.147Z"/><path d="M55.292 64a4.188 4.188 0 0 1-3.946-2.788l-6.498-17.73h-13.61c-5.624 0-7.155-4.492-7.863-8.343l22.296-.056c3.062 0 5.79 1.93 6.813 4.819L59.24 58.42C60.2 61.145 58.18 64 55.292 64ZM34.131 6.767a7.026 7.026 0 0 0-8.16-5.626l-.036.007a7.032 7.032 0 0 0 2.582 13.822 7.03 7.03 0 0 0 5.614-8.203ZM22.905 43.48h-10.04L7.712 19.608l9.763 5.904 2.23 10.413c.564 2.563 1.396 5.36 3.2 7.557Z"/><path d="M32.729 47.232v3.75h-2.754v11.09c0 1.01-.774 1.878-1.78 1.925a1.874 1.874 0 0 1-1.964-1.872V50.98h-9.2v11.091c0 1.01-.776 1.88-1.783 1.925a1.872 1.872 0 0 1-1.96-1.872V47.23l19.44.001Z"/></g><defs><clipPath id="a"><path fill="#fff" transform="translate(.5)" d="M0 0h64v64H0z"/></clipPath></defs></svg>
